X: 1556
T: Halling efter Niklas Olsson
R: Halling
O: Bohuslän
N: Från [[http://www.granquist.de/bohus1/hallniol.pdf|Granquist]].
Z: Till abc Jonas Brunskog
M: 2/4
L: 1/16
K: A
A2A2 c2e2 | eddd e4 | A2A2 c2e2 | f[fd][fd][fd] e4 | 
a2fd (fe)e2 | fafd fee2- | eafd fece | edBG A4 ||
(:musicend:)
(:music:)
